!!!!SEGMENT: pl-cz--iii-197--003_elsner-jozef--missa-c-op-22-graduale.krn
!!!cenid: 18xx:262
!!!COM: Elsner, Józef
!!!COM-rismid: pe30000957
!!!CDT: 1769/06/01-1854/04/18
!!!CNT: Polish
!!!OTL: Missa C op. 22 - Graduale
!!!PDT:
!!!AGN: Sacred; Mass
!!!SMS-siglum: PL-CZ
!!!SMS-shelfmark: III-197
!!!SMS-shelfwork: 001-003 M
!!!NIFC-rismid:
!!!URL-scan: http://repozytorium.nifc.pl/skany/pl-cz-nut--iii-197
!!!ONB-nifc: UWAGA: części Mszy: Kyrie, Gloria, Graduale, Credo, Offertorio, Sanctus, Benedictus, Agnus
**kern	**kern	**text	**dynam	**kern	**text	**dynam	**kern	**text	**dynam	**kern	**text	**dynam	**kern	**kern	**kern	**kern	**kern	**kern	**kern
*part12	*part11	*part11	*part11	*part10	*part10	*part10	*part9	*part9	*part9	*part8	*part8	*part8	*part7	*part6	*part5	*part4	*part3	*part2	*part1
*staff12	*staff11	*staff11	*	*staff10	*staff10	*	*staff9	*staff9	*	*staff8	*staff8	*	*staff7	*staff6	*staff5	*staff4	*staff3	*staff2	*staff1
*I"Basso	*I"Basso 2do	*	*	*I"Basso 1mo	*	*	*I"Tenore 2do	*	*	*I"Tenore 1mo	*	*	*I"Tympano in C G	*I"Clarino 2do in C	*I"Clarino 1mo in C	*I"Corno 2do in C	*I"Corno 1mo in C	*I"Corno 2do in F	*I"Corno 1mo in F
*I'Cb	*I'B II	*	*	*I'B I	*	*	*I'T II	*	*	*I'T I	*	*	*I'Timp	*I'Clno II in C	*I'Clno I in C	*I'Cor II in C	*I'Cor I in C	*I'Cor II in F	*I'Cor I in F
*clefF4	*clefF4	*	*	*clefF4	*	*	*clefC4	*	*	*clefC4	*	*	*clefF4	*clefG2	*clefG2	*clefG2	*clefG2	*clefG2	*clefG2
*	*	*	*	*	*	*	*	*	*	*	*	*	*	*	*	*ITrd0c0	*ITrd0c0	*ITrd4c7	*ITrd4c7
*k[b-]	*k[b-]	*	*	*k[b-]	*	*	*k[b-]	*	*	*k[b-]	*	*	*k[]	*k[b-]	*k[b-]	*k[b-]	*k[b-]	*k[b-]	*k[b-]
*	*	*	*	*	*	*	*	*	*	*	*	*	*	*	*	*	*	*	*
*M3/4	*M3/4	*	*	*M3/4	*	*	*M3/4	*	*	*M3/4	*	*	*M3/4	*M3/4	*M3/4	*M3/4	*M3/4	*M3/4	*M3/4
=1	=1	=1	=1	=1	=1	=1	=1	=1	=1	=1	=1	=1	=1	=1	=1	=1	=1	=1	=1
!LO:TX:a:t=problem&colon;pauzy 0r adnotacja "2."	!LO:TX:a:t=problem&colon;pauzy 0r adnotacja "2."	!	!	!LO:TX:a:t=problem&colon;laseczki nut w dół z prawej strony	!	!	!	!	!	!LO:TX:a:t=problem&colon;pauzy 0r adnotacja "2."	!	!	!	!	!	!	!LO:TX:a:t=problem&colon;pauzy 0r adnotacja "2."	!LO:TX:a:t=problem&colon;laseczki nut w dół z prawej strony	!LO:TX:a:t=problem&colon;laseczki nut w dół z prawej strony
!LO:TX:a:B:t=Andante	!LO:TX:a:B:t=Andante	!	!	!LO:TX:a:B:t=Andante	!	!	!LO:TX:a:B:t=Andante	!	!	!LO:TX:a:B:t=Andante	!	!	!LO:TX:a:B:t=Tacet.	!LO:TX:a:B:t=Tacet.	!LO:TX:a:B:t=Tacet.	!LO:TX:a:t=problem&colon;brak skanu	!LO:TX:a:B:t=Andante	!LO:TX:a:B:t=Andante	!LO:TX:a:B:t=Andante
2.r	2.r	.	.	2F\	Om-	.	2F/	Om-	.	2.r	.	.	2.ryy	2.ryy	2.ryy	2.ryy	2.r	2f\	2f\
.	.	.	.	4E\	-nes	.	4G/	-nes	.	.	.	.	.	.	.	.	.	4e\	4g\
=2	=2	=2	=2	=2	=2	=2	=2	=2	=2	=2	=2	=2	=2	=2	=2	=2	=2	=2	=2
2.r	2.r	.	.	4F\	gen-	.	4A/	gen-	.	2.r	.	.	2.ryy	2.ryy	2.ryy	2.ryy	2.r	4f\	4a\
.	.	.	.	4C\	-tes	.	4G/	-tes	.	.	.	.	.	.	.	.	.	4c\	4f\
.	.	.	.	4r	.	.	4r	.	.	.	.	.	.	.	.	.	.	4r	4r
=3	=3	=3	=3	=3	=3	=3	=3	=3	=3	=3	=3	=3	=3	=3	=3	=3	=3	=3	=3
!LO:TX:a:t=problem&colon;laseczki nut w dół z prawej strony	!LO:TX:a:t=problem&colon;laseczki nut w dół z prawej strony	!	!	!	!	!	!LO:TX:a:t=problem&colon;laseczki nut w dół z prawej strony	!	!	!LO:TX:a:t=problem&colon;laseczki nut w dół z prawej strony	!	!	!	!	!	!	!	!	!
2F\	2F\	Om-	.	2F\	{Om-	.	2A\	Om-	.	2c\	Om-	.	2.ryy	2.ryy	2.ryy	2.ryy	2cc\	2A/	2f\
4BB-/	4BB-/	-nes	.	4F\	-nes	.	4B-\	-nes	.	4d\	-nes	.	.	.	.	.	4dd\	4f\	4f\
=4	=4	=4	=4	=4	=4	=4	=4	=4	=4	=4	=4	=4	=4	=4	=4	=4	=4	=4	=4
4C/	4C/	gen-	.	4E\	gen-	.	4G/	gen-	.	8.c\	gen-	.	2.ryy	2.ryy	2.ryy	2.ryy	4cc\	4e\	4g\
.	.	.	.	.	.	.	.	.	.	16B-\	.	.	.	.	.	.	.	.	.
8FF/	8F\	-tes	.	8F\	-tes}	.	8F/	-tes	.	8A\	-tes	.	.	.	.	.	8cc\	8f\	8a\
8r	8F\	quas-	.	8F\	quas-	.	8F/	quas-	.	8A\	quas-	.	.	.	.	.	8r	8r	8r
4r	8F\	-cum	.	8F\	-cum	.	8G/	-cum	.	8B-\	-cum	.	.	.	.	.	4r	4r	4r
.	8F\	fe-	.	8F\	fe-	.	16A/	fe-	.	16c\	fe-	.	.	.	.	.	.	.	.
.	.	.	.	.	.	.	16A/	.	.	16c\	.	.	.	.	.	.	.	.	.
=5	=5	=5	=5	=5	=5	=5	=5	=5	=5	=5	=5	=5	=5	=5	=5	=5	=5	=5	=5
!LO:TX:a:t=problem&colon;pauzy 1r adnotacja "1."	!	!	!	!	!	!	!	!	!	!	!	!	!	!	!	!	!LO:TX:a:t=problem&colon;pauzy 1r adnotacja "1."	!	!
2.r	8.BB-/L	-ci-	.	4F\	-ci-	.	4B-\	-ci-	.	4d\	-ci-	.	2.ryy	2.ryy	2.ryy	2.ryy	2.r	4r	4r
.	16D/Jk	.	.	.	.	.	.	.	.	.	.	.	.	.	.	.	.	.	.
.	4F\	-sti	.	4F\	-sti	.	4A\	-sti	.	4c\	-sti	.	.	.	.	.	.	8r	8r
.	.	.	.	.	.	.	.	.	.	.	.	.	.	.	.	.	.	16f\LL	16f\LL
.	.	.	.	.	.	.	.	.	.	.	.	.	.	.	.	.	.	16f\JJ	16f\JJ
.	4r	.	.	4r	.	.	4r	.	.	4r	.	.	.	.	.	.	.	8f\L	8f\L
.	.	.	.	.	.	.	.	.	.	.	.	.	.	.	.	.	.	8f\J	8f\J
=6	=6	=6	=6	=6	=6	=6	=6	=6	=6	=6	=6	=6	=6	=6	=6	=6	=6	=6	=6
4r	8.C/	ve-	.	8.G\	ve-	.	8.B-\	ve-	.	8.e\	ve-	.	2.ryy	2.ryy	2.ryy	2.ryy	4.cc\	4.e\	4.g\
.	16C/	-nie-	.	16G\	-nie-	.	16B-\	-nie-	.	16e\	-nie-	.	.	.	.	.	.	.	.
8r	4C/	-ens	.	4G\	-ens	.	4B-\	-ens	.	4e\	-ens	.	.	.	.	.	.	.	.
8C/L	.	.	.	.	.	.	.	.	.	.	.	.	.	.	.	.	16cc\LL	16e\LL	16g\LL
.	.	.	.	.	.	.	.	.	.	.	.	.	.	.	.	.	16cc\JJ	16e\JJ	16g\JJ
8C/	4r	.	.	4r	.	.	4r	.	.	4r	.	.	.	.	.	.	8cc\L	8e\L	8g\L
8C/J	.	.	.	.	.	.	.	.	.	.	.	.	.	.	.	.	8cc\J	8e\J	8g\J
=7	=7	=7	=7	=7	=7	=7	=7	=7	=7	=7	=7	=7	=7	=7	=7	=7	=7	=7	=7
4C/	4C/	et	.	4G\	et	.	4B-\	et	.	4e\	et	.	2.ryy	2.ryy	2.ryy	2.ryy	4cc\	4e\	4g\
4r	4C/	a-	.	4G\	a-	.	4B-\	a-	.	4e\	a-	.	.	.	.	.	4r	4r	4r
4r	4C/	-do-	.	4G\	-do-	.	4B-\	-do-	.	4e\	-do-	.	.	.	.	.	4r	4r	4r
=8	=8	=8	=8	=8	=8	=8	=8	=8	=8	=8	=8	=8	=8	=8	=8	=8	=8	=8	=8
!	!	!	!	!	!	!	!	!	!	!	!	!	!	!	!	!	!LO:TX:a:t=problem&colon;pauzy 1r adnotacja "1."	!	!
2.D\	2D\	-ra-	.	2F\	-ra-	.	2A\	-ra-	.	2f\	-ra-	.	2.ryy	2.ryy	2.ryy	2.ryy	2.r	2.f\	2.f\
.	4D\	-bunt	.	4F\	-bunt	.	4A\	-bunt	.	4f\	-bunt	.	.	.	.	.	.	.	.
=9	=9	=9	=9	=9	=9	=9	=9	=9	=9	=9	=9	=9	=9	=9	=9	=9	=9	=9	=9
2.D\	4D\	co-	.	4F\	co-	.	4Bn\	co-	.	4f\	co-	.	2.ryy	2.ryy	2.ryy	2.ryy	2.dd\	2.f\	2.f\
.	4D\	-ram	.	4F\	-ram	.	4B\	-ram	.	4f\	-ram	.	.	.	.	.	.	.	.
.	4D\	te	.	4F\	te	.	4B\	te	.	4f\	te	.	.	.	.	.	.	.	.
=10	=10	=10	=10	=10	=10	=10	=10	=10	=10	=10	=10	=10	=10	=10	=10	=10	=10	=10	=10
2.C\	4.C\	Do-	.	4.G\	Do-	.	4.c\	Do-	.	4.e\	Do-	.	2.ryy	2.ryy	2.ryy	2.ryy	2.ee\	2.c/	2.g\
.	8C\	-mi-	.	8G\	-mi-	.	8c\	-mi-	.	8e\	-mi-	.	.	.	.	.	.	.	.
.	4C\	-ne	.	4G\	-ne	.	4c\	-ne	.	4e\	-ne	.	.	.	.	.	.	.	.
=11	=11	=11	=11	=11	=11	=11	=11	=11	=11	=11	=11	=11	=11	=11	=11	=11	=11	=11	=11
!	!LO:TX:a:t=problem&colon;pauzy 1r adnotacja "1."	!	!	!LO:TX:a:t=problem&colon;pauzy 1r adnotacja "1."	!	!	!	!	!	!	!	!	!	!	!	!	!	!	!
4C\	2.r	.	.	2.r	.	.	4.c\	et	.	4.e\	et	.	2.ryy	2.ryy	2.ryy	2.ryy	4ee\	4c/	4g\
4r	.	.	.	.	.	.	.	.	.	.	.	.	.	.	.	.	4r	4r	4r
.	.	.	.	.	.	.	8c\	glo-	.	8e\	glo-	.	.	.	.	.	.	.	.
4r	.	.	.	.	.	.	8Bn\	-ri-	.	8d\	-ri-	.	.	.	.	.	4r	4r	4r
.	.	.	.	.	.	.	8B\	-fi-	.	8d\	-fi-	.	.	.	.	.	.	.	.
=12	=12	=12	=12	=12	=12	=12	=12	=12	=12	=12	=12	=12	=12	=12	=12	=12	=12	=12	=12
!	!	!	!	!	!	!	!	!	!	!	!	!	!	!	!	!	!	!LO:TX:a:t=problem&colon;powtórka t. 11 oznaczona skrótem ÷	!LO:TX:a:t=problem&colon;powtórka t. 11 oznaczona skrótem ÷
4C\	4.E\	et	.	4.G\	et	.	4c\	-ca-	.	4c\	-ca-	.	2.ryy	2.ryy	2.ryy	2.ryy	4ee\	4c/	4g\
4r	.	.	.	.	.	.	8c\	-bunt	.	8c\	-bunt	.	.	.	.	.	4r	4r	4r
.	8E\	glo-	.	8G\	glo-	.	8r	.	.	8r	.	.	.	.	.	.	.	.	.
4r	8D\	-ri-	.	8F\	-ri-	.	4r	.	.	4r	.	.	.	.	.	.	4r	4r	4r
.	8D\	-fi-	.	8F\	-fi-	.	.	.	.	.	.	.	.	.	.	.	.	.	.
=13	=13	=13	=13	=13	=13	=13	=13	=13	=13	=13	=13	=13	=13	=13	=13	=13	=13	=13	=13
!	!	!	!	!	!	!	!	!	!	!	!	!	!	!	!	!	!	!LO:TX:a:t=problem&colon;powtórka t. 11 oznaczona skrótem ÷	!LO:TX:a:t=problem&colon;powtórka t. 11 oznaczona skrótem ÷
4C\	4C/	-ca-	.	4E\	-ca-	.	4.e\	et	.	4.g\	et	.	2.ryy	2.ryy	2.ryy	2.ryy	4ee\	4c/	4g\
4r	8C/	-bunt	.	8E\	-bunt	.	.	.	.	.	.	.	.	.	.	.	4r	4r	4r
.	8r	.	.	8r	.	.	8e\	glo-	.	8g\	glo-	.	.	.	.	.	.	.	.
4r	4r	.	.	4r	.	.	8d\	-ri-	.	8f\	-ri-	.	.	.	.	.	4r	4r	4r
.	.	.	.	.	.	.	8d\	-fi-	.	8f\	-fi-	.	.	.	.	.	.	.	.
=14	=14	=14	=14	=14	=14	=14	=14	=14	=14	=14	=14	=14	=14	=14	=14	=14	=14	=14	=14
!LO:TX:a:t=problem&colon;pauzy 00r 0r adnotacja "6."	!LO:TX:a:t=problem&colon;pauzy 1r adnotacja "1."	!	!	!	!	!	!	!	!	!	!	!	!	!	!	!	!LO:TX:a:t=problem&colon;pauzy 00r 0r adnotacja "6."	!LO:TX:a:t=problem&colon;pauzy 00r 0r adnotacja "6."	!LO:TX:a:t=problem&colon;pauzy 00r 0r adnotacja "6."
2.r	2.r	.	.	4.A\	{et	.	4c#X\	-ca-	.	4e\	-ca-	.	2.ryy	2.ryy	2.ryy	2.ryy	2.r	2.r	2.r
.	.	.	.	.	.	.	8c#\	-bunt	.	8e\	-bunt	.	.	.	.	.	.	.	.
.	.	.	.	8A\	glo-	.	8r	.	.	8r	.	.	.	.	.	.	.	.	.
.	.	.	.	8G\	-ri-	.	4r	.	.	4r	.	.	.	.	.	.	.	.	.
.	.	.	.	8G\	-fi-	.	.	.	.	.	.	.	.	.	.	.	.	.	.
=15	=15	=15	=15	=15	=15	=15	=15	=15	=15	=15	=15	=15	=15	=15	=15	=15	=15	=15	=15
2.r	4.D\	et	.	4F\	-ca-	.	[2.d\	No-	.	[2.f\	No-	.	2.ryy	2.ryy	2.ryy	2.ryy	2.r	2.r	2.r
.	.	.	.	8F\	-bunt}	.	.	.	.	.	.	.	.	.	.	.	.	.	.
.	8D\	glo-	.	8r	.	.	.	.	.	.	.	.	.	.	.	.	.	.	.
.	8C\	-ri-	.	4r	.	.	.	.	.	.	.	.	.	.	.	.	.	.	.
.	8C\	-fi-	.	.	.	.	.	.	.	.	.	.	.	.	.	.	.	.	.
=16	=16	=16	=16	=16	=16	=16	=16	=16	=16	=16	=16	=16	=16	=16	=16	=16	=16	=16	=16
2.r	2BBn/	-ca-	.	2.G\	No-	.	2d\]	.	.	2f\]	.	.	2.ryy	2.ryy	2.ryy	2.ryy	2.r	2.r	2.r
.	4C/	-bunt	.	.	.	.	4c\	.	.	4e\	.	.	.	.	.	.	.	.	.
=17	=17	=17	=17	=17	=17	=17	=17	=17	=17	=17	=17	=17	=17	=17	=17	=17	=17	=17	=17
2.r	2F\	no-	.	2.A\	-men	.	2A\	.	.	4.e\	.	.	2.ryy	2.ryy	2.ryy	2.ryy	2.r	2.r	2.r
.	.	.	.	.	.	.	.	.	.	8d\L	-men	.	.	.	.	.	.	.	.
.	4F\	-men	.	.	.	.	4A\	-men	.	8e\	.	.	.	.	.	.	.	.	.
.	.	.	.	.	.	.	.	.	.	8f\J	.	.	.	.	.	.	.	.	.
=18	=18	=18	=18	=18	=18	=18	=18	=18	=18	=18	=18	=18	=18	=18	=18	=18	=18	=18	=18
2.r	2G\	tu-	.	2G\	tu-	.	2c\	tu-	.	2e\	tu-	.	2.ryy	2.ryy	2.ryy	2.ryy	2.r	2.r	2.r
!	!	!	!	!	!	!	!LO:TX:a:t=SIC&colon;s=8.Bn	!	!	!	!	!	!	!	!	!	!	!	!
.	4GG/	.	.	8.F\L	.	.	8.B-\L	.	.	8.d\L	.	.	.	.	.	.	.	.	.
.	.	.	.	16E\Jk	.	.	16c\Jk	.	.	16c\Jk	.	.	.	.	.	.	.	.	.
=19	=19	=19	=19	=19	=19	=19	=19	=19	=19	=19	=19	=19	=19	=19	=19	=19	=19	=19	=19
2.r	4.AA/	-um	.	4.E\	-um	.	4.c\	-um	.	4.c\	-um	.	2.ryy	2.ryy	2.ryy	2.ryy	2.r	2.r	2.r
.	8A\	glo-	.	8A\	glo-	.	8c\	glo-	.	8c\	glo-	.	.	.	.	.	.	.	.
.	8A\	-ri-	.	8A\	-ri-	.	8c\	-ri-	.	8d\	-ri-	.	.	.	.	.	.	.	.
.	8A\	-fi-	.	8A\	-fi-	.	8c\	-fi-	.	8e\	-fi-	.	.	.	.	.	.	.	.
=20	=20	=20	=20	=20	=20	=20	=20	=20	=20	=20	=20	=20	=20	=20	=20	=20	=20	=20	=20
4r	(4G\	-ca-	.	2G\	-ca-	.	2Bn\	-ca-	.	2f\	-ca-	.	2.ryy	2.ryy	2.ryy	2.ryy	4r	4r	4r
4BBn/	4BBn/)	.	.	.	.	.	.	.	.	.	.	.	.	.	.	.	4dd\	4f\	4g\
4C/	4C/	-bunt	.	4G\	-bunt	.	4c\	-bunt	.	4e\	-bunt	.	.	.	.	.	4ee\	4e\	4g\
=21	=21	=21	=21	=21	=21	=21	=21	=21	=21	=21	=21	=21	=21	=21	=21	=21	=21	=21	=21
2.F\	2F\	no-	.	2A\	no-	.	2A\	no-	.	4.e\	no-	.	2.ryy	2.ryy	2.ryy	2.ryy	4r	2.f\	2.a\
.	.	.	.	.	.	.	.	.	.	.	.	.	.	.	.	.	4dd\	.	.
.	.	.	.	.	.	.	.	.	.	8d\L	-men	.	.	.	.	.	.	.	.
.	4F\	-men	.	4A\	-men	.	4A\	-men	.	8e\	.	.	.	.	.	.	4dd\	.	.
.	.	.	.	.	.	.	.	.	.	8f\J	.	.	.	.	.	.	.	.	.
=22	=22	=22	=22	=22	=22	=22	=22	=22	=22	=22	=22	=22	=22	=22	=22	=22	=22	=22	=22
2.G\	(2G\	tu-	.	2G\	tu-	.	2c\	tu-	.	(2e\	tu-	.	2.ryy	2.ryy	2.ryy	2.ryy	4r	2e\	2g\
.	.	.	.	.	.	.	.	.	.	.	.	.	.	.	.	.	4ee\	.	.
.	4GG/)	.	.	8.F\L	.	.	8.Bn\L	.	.	8.d\L	.	.	.	.	.	.	4dd\	4f\	4g\
.	.	.	.	16E\Jk	.	.	16c\Jk	.	.	16c\Jk)	.	.	.	.	.	.	.	.	.
=23	=23	=23	=23	=23	=23	=23	=23	=23	=23	=23	=23	=23	=23	=23	=23	=23	=23	=23	=23
2C/	2C/	-um	.	2E\	-um	.	2c\	-um	.	2c\	-um	.	2.ryy	2.ryy	2.ryy	2.ryy	2cc\	2e\	2g\
4r	4r	.	.	4r	.	.	4r	.	.	4r	.	.	.	.	.	.	4r	4r	4r
=24	=24	=24	=24	=24	=24	=24	=24	=24	=24	=24	=24	=24	=24	=24	=24	=24	=24	=24	=24
!LO:TX:a:t=problem&colon;pauzy 0r adnotacja "2."	!	!	!LO:DY:a	!	!	!LO:DY:a	!	!	!LO:DY:a	!	!	!LO:DY:a	!	!	!	!	!LO:TX:a:t=problem&colon;pauzy 0r adnotacja "2."	!LO:TX:a:t=problem&colon;pauzy 0r adnotacja "2."	!LO:TX:a:t=problem&colon;pauzy 0r adnotacja "2."
2.r	2C\	no-	p	2G\	No-	p	2c\	No-	p	2e\	No-	p	2.ryy	2.ryy	2.ryy	2.ryy	2.r	2.r	2.r
.	4E\	-men	.	4G\	-men	.	4c\	-men	.	4e\	-men	.	.	.	.	.	.	.	.
=25	=25	=25	=25	=25	=25	=25	=25	=25	=25	=25	=25	=25	=25	=25	=25	=25	=25	=25	=25
2.r	(2G\	tu-	.	2G\	tu-	.	2c\	tu-	.	2.d\	tu-	.	2.ryy	2.ryy	2.ryy	2.ryy	2.r	2.r	2.r
.	4GG/)	.	.	8G\L	.	.	4Bn\	.	.	.	.	.	.	.	.	.	.	.	.
.	.	.	.	8F\J	.	.	.	.	.	.	.	.	.	.	.	.	.	.	.
=26	=26	=26	=26	=26	=26	=26	=26	=26	=26	=26	=26	=26	=26	=26	=26	=26	=26	=26	=26
4r	2C/	-um	.	2E\	-um	.	2c\	-um	.	2c\	-um	.	2.ryy	2.ryy	2.ryy	2.ryy	4r	4r	4r
8r	.	.	.	.	.	.	.	.	.	.	.	.	.	.	.	.	8r	8r	8r
8C/	.	.	.	.	.	.	.	.	.	.	.	.	.	.	.	.	8cc\	8c/	8c/L
8C/L	4r	.	.	4r	.	.	4r	.	.	4r	.	.	.	.	.	.	8cc\L	8c/L	8c/
8C/J	.	.	.	.	.	.	.	.	.	.	.	.	.	.	.	.	8cc\J	8c/J	8c/J
=27	=27	=27	=27	=27	=27	=27	=27	=27	=27	=27	=27	=27	=27	=27	=27	=27	=27	=27	=27
!	!	!	!	!	!	!	!	!	!	!LO:TX:a:t=problem&colon;pauzy 0r adnotacja "2."	!	!	!	!	!	!	!	!	!
4C/	[2.C/	Quo-	.	4.G\	Quo-	.	4.B-X\	Quo-	.	2.r	.	.	2.ryy	2.ryy	2.ryy	2.ryy	4cc\	4c/	4c/
4r	.	.	.	.	.	.	.	.	.	.	.	.	.	.	.	.	4r	4r	4r
.	.	.	.	8G\	-ni-	.	8B-\	-ni-	.	.	.	.	.	.	.	.	.	.	.
4r	.	.	.	4G\	-am	.	4B-\	-am	.	.	.	.	.	.	.	.	4r	4r	4r
=28	=28	=28	=28	=28	=28	=28	=28	=28	=28	=28	=28	=28	=28	=28	=28	=28	=28	=28	=28
!LO:TX:a:t=problem&colon;pauzy 00r 0r adnotacja "6."	!	!	!	!	!	!	!	!	!	!	!	!	!	!	!	!	!LO:TX:a:t=problem&colon;pauzy 00r 0r adnotacja "6."	!LO:TX:a:t=problem&colon;pauzy 00r 0r adnotacja "6."	!LO:TX:a:t=problem&colon;pauzy 00r 0r adnotacja "6."
2.r	2C/]	.	.	4B-\	ma-	.	4d\	mag-	.	2.r	.	.	2.ryy	2.ryy	2.ryy	2.ryy	2.r	2.r	2.r
.	.	.	.	4A\	-gnus	.	4c\	-nus	.	.	.	.	.	.	.	.	.	.	.
.	8D/L	-ni-	.	4G\	es	.	4B-\	es	.	.	.	.	.	.	.	.	.	.	.
.	8E/J	.	.	.	.	.	.	.	.	.	.	.	.	.	.	.	.	.	.
=29	=29	=29	=29	=29	=29	=29	=29	=29	=29	=29	=29	=29	=29	=29	=29	=29	=29	=29	=29
2.r	2F\	-am	.	2F\	tu	.	2A\	tu	.	4.f\	Quo-	.	2.ryy	2.ryy	2.ryy	2.ryy	2.r	2.r	2.r
.	.	.	.	.	.	.	.	.	.	8f\	-ni-	.	.	.	.	.	.	.	.
.	4r	.	.	4r	.	.	4r	.	.	4f\	-am	.	.	.	.	.	.	.	.
=30	=30	=30	=30	=30	=30	=30	=30	=30	=30	=30	=30	=30	=30	=30	=30	=30	=30	=30	=30
2.r	4.C/	quo-	.	2.G\	Ma-	.	2.B-\	Ma-	.	4e\	ma-	.	2.ryy	2.ryy	2.ryy	2.ryy	2.r	2.r	2.r
.	.	.	.	.	.	.	.	.	.	4d\	-gnus	.	.	.	.	.	.	.	.
.	8C/	-ni-	.	.	.	.	.	.	.	.	.	.	.	.	.	.	.	.	.
.	4C/	-am	.	.	.	.	.	.	.	4c\	es	.	.	.	.	.	.	.	.
=31	=31	=31	=31	=31	=31	=31	=31	=31	=31	=31	=31	=31	=31	=31	=31	=31	=31	=31	=31
2.r	(4D/	Ma-	.	(4F\	-gnus	.	2A\	-gnus	.	2f\	tu	.	2.ryy	2.ryy	2.ryy	2.ryy	2.r	2.r	2.r
.	4C/)	-gnus	.	4E\)	.	.	.	.	.	.	.	.	.	.	.	.	.	.	.
.	4BB-/	es	.	4D\	es	.	4B-\	es	.	4r	.	.	.	.	.	.	.	.	.
=32	=32	=32	=32	=32	=32	=32	=32	=32	=32	=32	=32	=32	=32	=32	=32	=32	=32	=32	=32
!	!LO:TX:a:t=problem&colon;tekst słowny - w innych głosach "tu et"	!	!	!	!	!	!	!	!	!	!	!	!	!	!	!	!	!	!
2.r	2AA/	tu-	.	2F\	tu	.	2c\	tu	.	[2.f\	et	.	2.ryy	2.ryy	2.ryy	2.ryy	2.r	2.r	2.r
.	4AA/	-us	.	4F\	et	.	4c#X\	et	.	.	.	.	.	.	.	.	.	.	.
=33	=33	=33	=33	=33	=33	=33	=33	=33	=33	=33	=33	=33	=33	=33	=33	=33	=33	=33	=33
!	!	!	!	!	!	!	!	!	!	!LO:TX:a:t=problem&colon;tekst słowny - w innych głosach "faciens"	!	!	!	!	!	!	!	!	!
2.r	4.BB-/	fa-	.	4.F\	fa-	.	4.d\	fa-	.	4.f\]	fa-	.	2.ryy	2.ryy	2.ryy	2.ryy	2.r	2.r	2.r
.	8BB-/	-ci-	.	8G\	-ci-	.	8B-\	-ci-	.	8d\	-ci-	.	.	.	.	.	.	.	.
.	4BB-/	-ens	.	4G\	-ens	.	4B-\	-ens	.	4d\	-em	.	.	.	.	.	.	.	.
=34	=34	=34	=34	=34	=34	=34	=34	=34	=34	=34	=34	=34	=34	=34	=34	=34	=34	=34	=34
4r	2BBn/	mi-	.	2F\	mi-	.	2A-X\	mi-	.	2d\	Mi-	.	2.ryy	2.ryy	2.ryy	2.ryy	4r	4r	4r
2BBn/	.	.	.	.	.	.	.	.	.	.	.	.	.	.	.	.	2dd\	2f\	2a-X\
.	4BB/	-ra-	.	4F\	-ra-	.	4A-\	-ra-	.	4d\	-ra-	.	.	.	.	.	.	.	.
=35	=35	=35	=35	=35	=35	=35	=35	=35	=35	=35	=35	=35	=35	=35	=35	=35	=35	=35	=35
2.C/	8.C/	-bi-	.	8.E-X\	-bi-	.	8.A-X\	-bi-	.	8.e-X\	-bi-	.	2.ryy	2.ryy	2.ryy	2.ryy	2ee-X\	2.e-X\	2.a-X\
.	16C/	-li-	.	16E-\	-li-	.	16A-\	-li-	.	16e-\	-li-	.	.	.	.	.	.	.	.
.	4C/	-a	.	4E-\	-a	.	4A-\	-a	.	4e-\	-a	.	.	.	.	.	.	.	.
.	4r	.	.	4r	.	.	4r	.	.	4r	.	.	.	.	.	.	4ee-\	.	.
=36	=36	=36	=36	=36	=36	=36	=36	=36	=36	=36	=36	=36	=36	=36	=36	=36	=36	=36	=36
!	!	!	!	!	!	!	!	!	!LO:DY:a	!	!	!LO:DY:a	!	!	!	!	!	!	!
2D-X\	4r	.	.	4r	.	.	4r	.	p	4r	.	p	2.ryy	2.ryy	2.ryy	2.ryy	4ee-X\	2f\	2a-X\
.	4D-X\	tu	.	4D-X\	tu	.	4A-X\	tu	.	4f\	tu	.	.	.	.	.	4dd-X\	.	.
4r	4D-\	es	.	4D-\	es	.	4A-\	es	.	4f\	es	.	.	.	.	.	4r	4r	4r
=37	=37	=37	=37	=37	=37	=37	=37	=37	=37	=37	=37	=37	=37	=37	=37	=37	=37	=37	=37
!LO:TX:a:t=problem&colon;pauzy 1r adnotacja "1."	!	!	!	!	!	!	!	!	!	!	!	!	!	!	!	!	!LO:TX:a:t=problem&colon;pauzy 1r adnotacja "1."	!LO:TX:a:t=problem&colon;pauzy 1r adnotacja "1."	!LO:TX:a:t=problem&colon;pauzy 1r adnotacja "1."
2.r	2C/	De-	.	2E-X\	De-	.	2An\	De-	.	2f\	De-	.	2.ryy	2.ryy	2.ryy	2.ryy	2.r	2.r	2.r
.	4BB-/	-us	.	4D-X\	-us	.	4B-\	-us	.	4f\	-us	.	.	.	.	.	.	.	.
=38	=38	=38	=38	=38	=38	=38	=38	=38	=38	=38	=38	=38	=38	=38	=38	=38	=38	=38	=38
4BB-/	4r	.	.	4r	.	.	4r	.	.	4r	.	.	2.ryy	2.ryy	2.ryy	2.ryy	4dd-X\	4f\	4f\
4r	4BB-/	tu	.	4F\	tu	.	4B-\	tu	.	4d-X\	tu	.	.	.	.	.	4r	4r	4r
4r	4BB-/	es	.	4F\	es	.	4B-\	es	.	4d-\	es	.	.	.	.	.	4r	4r	4r
=39	=39	=39	=39	=39	=39	=39	=39	=39	=39	=39	=39	=39	=39	=39	=39	=39	=39	=39	=39
4r	2C/	De-	.	4F\	De-	.	2An\	De-	.	2c\	De-	.	2.ryy	2.ryy	2.ryy	2.ryy	4r	4r	4r
4C/	.	.	.	4C\	.	.	.	.	.	.	.	.	.	.	.	.	4cc\	4f\	4a\
4C/	4C/	-us	.	4En\	-us	.	4G\	-us	.	4B-\	-us	.	.	.	.	.	4cc\	4e\	4g\
=40	=40	=40	=40	=40	=40	=40	=40	=40	=40	=40	=40	=40	=40	=40	=40	=40	=40	=40	=40
4.F\	4F\	so-	.	4F\	so-	.	4F/	so-	.	4A\	so-	.	2.ryy	2.ryy	2.ryy	2.ryy	4r	4f\	4a\
.	8F\	-lus	.	8F\	-lus	.	8F/	-lus	.	8A\	-lus	.	.	.	.	.	8r	8r	8r
8C/L	8r	.	.	8r	.	.	8r	.	.	8r	.	.	.	.	.	.	8cc\	8c/	8c/
8C/	4r	.	.	4r	.	.	4r	.	.	4r	.	.	.	.	.	.	8cc\L	8c/L	8c/L
8C/J	.	.	.	.	.	.	.	.	.	.	.	.	.	.	.	.	8cc\J	8c/J	8c/J
=41	=41	=41	=41	=41	=41	=41	=41	=41	=41	=41	=41	=41	=41	=41	=41	=41	=41	=41	=41
!	!	!	!	!	!	!	!	!	!	!LO:TX:a:t=problem&colon;pauzy 0r adnotacja "2."	!	!	!	!	!	!	!	!	!
4C/	[2.C/	Quo-	.	4.G\	Quo-	.	4.B-\	Quo-	.	2.r	.	.	2.ryy	2.ryy	2.ryy	2.ryy	4cc\	4c/	4c/
4r	.	.	.	.	.	.	.	.	.	.	.	.	.	.	.	.	4r	4r	4r
.	.	.	.	8G\	-ni-	.	8B-\	-ni-	.	.	.	.	.	.	.	.	.	.	.
4r	.	.	.	4G\	-am	.	4B-\	-am	.	.	.	.	.	.	.	.	4r	4r	4r
=42	=42	=42	=42	=42	=42	=42	=42	=42	=42	=42	=42	=42	=42	=42	=42	=42	=42	=42	=42
!LO:TX:a:t=problem&colon;pauzy 00r 0r adnotacja "6."	!	!	!	!	!	!	!	!	!	!	!	!	!	!	!	!	!LO:TX:a:t=problem&colon;pauzy 00r 0r adnotacja "6."	!LO:TX:a:t=problem&colon;pauzy 00r 0r adnotacja "6."	!LO:TX:a:t=problem&colon;pauzy 00r 0r adnotacja "6."
2.r	2C/]	.	.	(4B-\	Ma-	.	4d\	Ma-	.	2.r	.	.	2.ryy	2.ryy	2.ryy	2.ryy	2.r	2.r	2.r
.	.	.	.	4A\)	-gnus	.	4c\	-gnus	.	.	.	.	.	.	.	.	.	.	.
.	8D/L	-ni-	.	4G\	es	.	4B-\	es	.	.	.	.	.	.	.	.	.	.	.
.	8E/J	.	.	.	.	.	.	.	.	.	.	.	.	.	.	.	.	.	.
=43	=43	=43	=43	=43	=43	=43	=43	=43	=43	=43	=43	=43	=43	=43	=43	=43	=43	=43	=43
2.r	2F\	-am	.	2F\	tu	.	2A\	tu	.	4.f\	Quo-	.	2.ryy	2.ryy	2.ryy	2.ryy	2.r	2.r	2.r
.	.	.	.	.	.	.	.	.	.	8f\	-ni-	.	.	.	.	.	.	.	.
.	4r	.	.	4r	.	.	4r	.	.	4f\	-am	.	.	.	.	.	.	.	.
=44	=44	=44	=44	=44	=44	=44	=44	=44	=44	=44	=44	=44	=44	=44	=44	=44	=44	=44	=44
2.r	4.C/	Quo-	.	2.G\	Ma-	.	2.B-\	Ma-	.	4e\	ma-	.	2.ryy	2.ryy	2.ryy	2.ryy	2.r	2.r	2.r
.	.	.	.	.	.	.	.	.	.	4d\	-gnus	.	.	.	.	.	.	.	.
.	8C/	-ni-	.	.	.	.	.	.	.	.	.	.	.	.	.	.	.	.	.
.	4C/	-am	.	.	.	.	.	.	.	4c\	es	.	.	.	.	.	.	.	.
=45	=45	=45	=45	=45	=45	=45	=45	=45	=45	=45	=45	=45	=45	=45	=45	=45	=45	=45	=45
2.r	4D\	ma-	.	(4F\	-gnus	.	2A\	-gnus	.	2f\	tu	.	2.ryy	2.ryy	2.ryy	2.ryy	2.r	2.r	2.r
.	4C\	-gnus	.	4E\)	.	.	.	.	.	.	.	.	.	.	.	.	.	.	.
.	4BB-\	es	.	4D\	es	.	4B-\	es	.	4r	.	.	.	.	.	.	.	.	.
=46	=46	=46	=46	=46	=46	=46	=46	=46	=46	=46	=46	=46	=46	=46	=46	=46	=46	=46	=46
2.r	2AA/	tu-	.	2F\	tu	.	2c\	tu	.	[2.f\	et	.	2.ryy	2.ryy	2.ryy	2.ryy	2.r	2.r	2.r
.	4AA/	-us	.	4F\	et	.	4c#X\	et	.	.	.	.	.	.	.	.	.	.	.
=47	=47	=47	=47	=47	=47	=47	=47	=47	=47	=47	=47	=47	=47	=47	=47	=47	=47	=47	=47
!	!	!	!	!	!	!	!	!	!	!LO:TX:a:t=problem&colon;tekst słowny - w innych głosach "faciens"	!	!	!	!	!	!	!	!	!
2.r	4.BB-/	fa-	.	4.F\	fa-	.	4.d\	fa-	.	4.f\]	fa-	.	2.ryy	2.ryy	2.ryy	2.ryy	2.r	2.r	2.r
.	8BB-/	-ci-	.	8G\	-ci-	.	8B-\	-ci-	.	8d\	-ci-	.	.	.	.	.	.	.	.
.	4BB-/	-ens	.	4G\	-ens	.	4B-\	-ens	.	4d\	-en	.	.	.	.	.	.	.	.
=48	=48	=48	=48	=48	=48	=48	=48	=48	=48	=48	=48	=48	=48	=48	=48	=48	=48	=48	=48
4r	2BBn/	mi-	.	2F\	mi-	.	2A-X\	mi-	.	2d\	Mi-	.	2.ryy	2.ryy	2.ryy	2.ryy	4r	4r	4r
2BBn/	.	.	.	.	.	.	.	.	.	.	.	.	.	.	.	.	2dd\	2f\	[2a-X\
.	4BB/	-ra-	.	4F\	-ra-	.	4A-\	-ra-	.	4d\	-ra-	.	.	.	.	.	.	.	.
=49	=49	=49	=49	=49	=49	=49	=49	=49	=49	=49	=49	=49	=49	=49	=49	=49	=49	=49	=49
!	!	!	!	!	!	!	!	!	!	!	!	!LO:DY:a	!	!	!	!	!	!	!
2.C/	8.C/	-bi-	.	8.E-X\	-bi-	.	8.A-X\	-bi-	.	8.e-X\	-bi-	f	2.r	2.r	2.r	2.ryy	[2.ee-X\	2.e-X\	2.a-\_
.	16C/	-li-	.	16E-\	-li-	.	16A-\	-li-	.	16e-\	-li-	.	.	.	.	.	.	.	.
.	4C/	-a	.	4E-\	-a	.	4A-\	-a	.	4e-\	-a	.	.	.	.	.	.	.	.
.	4r	.	.	4r	.	.	4r	.	.	4r	.	.	.	.	.	.	.	.	.
=50	=50	=50	=50	=50	=50	=50	=50	=50	=50	=50	=50	=50	=50	=50	=50	=50	=50	=50	=50
!	!	!	!	!	!	!	!	!	!	!	!	!LO:DY:a	!	!	!	!	!	!	!
2D-X\	4r	.	.	4r	.	.	4r	.	.	4r	.	p	2.r	2.r	2.r	2.ryy	4ee-X\]	2f\	2a-X\]
.	4D-X\	tu	.	4D-X\	tu	.	4A-X\	tu	.	4f\	tu	.	.	.	.	.	4dd-X\	.	.
4r	4D-\	es	.	4D-\	es	.	4A-\	es	.	4f\	es	.	.	.	.	.	4r	4r	4r
=51	=51	=51	=51	=51	=51	=51	=51	=51	=51	=51	=51	=51	=51	=51	=51	=51	=51	=51	=51
!LO:TX:a:t=problem&colon;pauzy 1r adnotacja "1."	!	!	!	!	!	!	!	!	!	!	!	!	!	!	!	!	!LO:TX:a:t=problem&colon;pauzy 1r	!LO:TX:a:t=problem&colon;pauzy 1r adnotacja "1."	!LO:TX:a:t=problem&colon;pauzy 1r adnotacja "1."
2.r	2C/	De-	.	2E-X\	De-	.	2An\	De-	.	2f\	De-	.	2.r	2.r	2.r	2.ryy	2.r	2.r	2.r
.	4BB-/	-us	.	4D-X\	-us	.	4B-\	-us	.	4f\	-us	.	.	.	.	.	.	.	.
=52	=52	=52	=52	=52	=52	=52	=52	=52	=52	=52	=52	=52	=52	=52	=52	=52	=52	=52	=52
4BB-/	4r	.	.	4r	.	.	4r	.	.	4r	.	.	2.r	2.r	2.r	2.ryy	4dd-X\	4f\	4f\
4r	4BB-/	tu	.	4F\	tu	.	4B-\	tu	.	4d-X\	tu	.	.	.	.	.	4r	4r	4r
4r	4BB-/	es	.	4F\	es	.	4B-\	es	.	4d-\	es	.	.	.	.	.	4r	4r	4r
=53	=53	=53	=53	=53	=53	=53	=53	=53	=53	=53	=53	=53	=53	=53	=53	=53	=53	=53	=53
4r	2C/	De-	.	(4F\	De-	.	2A\	De-	.	2c\	De-	.	2.r	2.r	2.r	2.ryy	4r	4r	4r
4C/	.	.	.	4C\)	.	.	.	.	.	.	.	.	.	.	.	.	4cc\	4f\	4a\
4C/	4C/	-us	.	4En\	-us	.	4G\	-us	.	4B-\	-us	.	.	.	.	.	4cc\	4e\	4g\
=54	=54	=54	=54	=54	=54	=54	=54	=54	=54	=54	=54	=54	=54	=54	=54	=54	=54	=54	=54
2D\	2D\	so-	.	2F\	so-	.	2F/	so-	.	(4A\	so-	.	2.r	2.r	2.r	2.ryy	2cc\	[2.f\	2f\
.	.	.	.	.	.	.	.	.	.	4c\)	.	.	.	.	.	.	.	.	.
4D-X\	(4D-X\	-lus	.	4F\	-lus	.	4A-X\	-lus	.	4Bn\	-lus	.	.	.	.	.	4bn\	.	4a-X\
=55	=55	=55	=55	=55	=55	=55	=55	=55	=55	=55	=55	=55	=55	=55	=55	=55	=55	=55	=55
[2.C/	2.C/	De-	.	(4F\	De-	.	(4An\	De-	.	[2.c\	De-	.	2.r	2.r	2.r	2.ryy	[2.cc\	4f\]	4a\
.	.	.	.	4G\	.	.	4B-\	.	.	.	.	.	.	.	.	.	.	4e\	4g\
.	.	.	.	4F\	.	.	4A\	.	.	.	.	.	.	.	.	.	.	4f\	4a\
=56	=56	=56	=56	=56	=56	=56	=56	=56	=56	=56	=56	=56	=56	=56	=56	=56	=56	=56	=56
2.C/]	2.C/)	.	.	4E\	.	.	4G\	.	.	2c\]	.	.	2.r	2.r	2.r	2.ryy	2.cc\_	4e\	4g\
.	.	.	.	4A\	.	.	4c\	.	.	.	.	.	.	.	.	.	.	4f\	4a\
.	.	.	.	4G\)	-us	.	4B-\)	-us	.	8d\L	-us	.	.	.	.	.	.	4c\	4g\
.	.	.	.	.	.	.	.	.	.	8e\J	.	.	.	.	.	.	.	.	.
=57	=57	=57	=57	=57	=57	=57	=57	=57	=57	=57	=57	=57	=57	=57	=57	=57	=57	=57	=57
[2.FF/	2.FF/ [2.F	.	.	[2.F\	so-	.	[2.A\	so-	.	[2.f\	so-	.	2.r	2.r	2.r	2.ryy	2.cc\_	[2.A/	[2.f\
=58	=58	=58	=58	=58	=58	=58	=58	=58	=58	=58	=58	=58	=58	=58	=58	=58	=58	=58	=58
2FF/]	2FF/ 2F]	-us.	.	2F\]	-lus.	.	2A\]	-lus.	.	2f\]	-lus	.	2.r	2.r	2.r	2.ryy	2cc\]	2A/]	2f\]
4r	4r	.	.	4r	.	.	4r	.	.	4r	.	.	.	.	.	.	4r	4r	4r
==	==	==	==	==	==	==	==	==	==	==	==	==	==	==	==	==	==	==	==
*-	*-	*-	*-	*-	*-	*-	*-	*-	*-	*-	*-	*-	*-	*-	*-	*-	*-	*-	*-
!!!system-decoration: [(s1,s2,s3,s4,s5,s6)]s7[(s8,s9,s10,s11)]s12
!!!ENC: Andrzej Kubiczek
!!!END: 2020-04-10
